icons/svg/clear-active_16.svg

<?xml version="1.0" encoding="UTF-8"?>
<svg width="16px" height="16px" viewBox="0 0 16 16" version="1.1" xmlns="http://www.w3.org/2000/svg" xmlns:xlink="http://www.w3.org/1999/xlink">
    <!-- Generator: Sketch 59.1 (86144) - https://sketch.com -->
    <title>clear-active_16</title>
    <desc>Created with Sketch.</desc>
    <g id="Icons-Webex" stroke="none" stroke-width="1" fill="none" fill-rule="evenodd">
        <g id="common-actions/clear-active_16" fill="#1DC4F2">
            <g id="clear-active_16">
                <path d="M8,0 C12.411,0 16,3.589 16,8 C16,12.411 12.411,16 8,16 C3.589,16 0,12.411 0,8 C0,3.589 3.589,0 8,0 Z M5.1495,5.1425 C4.9525,5.3355 4.9495,5.6525 5.1435,5.8495 L7.2715,8.0215 L5.1465,10.1465 C4.9515,10.3415 4.9515,10.6585 5.1465,10.8535 C5.2445,10.9515 5.3725,11.0005 5.4995,11.0005 C5.6275,11.0005 5.7555,10.9515 5.8535,10.8535 L7.9715,8.7355 L10.0425,10.8495 C10.1415,10.9505 10.2705,11.0005 10.4005,11.0005 C10.5265,11.0005 10.6535,10.9525 10.7495,10.8575 C10.9475,10.6645 10.9515,10.3475 10.7575,10.1505 L8.6785,8.0285 L10.8535,5.8535 C11.0485,5.6585 11.0485,5.3415 10.8535,5.1465 C10.6585,4.9515 10.3415,4.9515 10.1465,5.1465 L7.9785,7.3145 L5.8565,5.1505 C5.6635,4.9505 5.3475,4.9505 5.1495,5.1425 Z" id="fill"></path>
            </g>
        </g>
    </g>
</svg>

<svg width="16" height="16" viewBox="0 0 16 16" xmlns="http://www.w3.org/2000/svg"><title>common-actions/clear-active_16</title><path d="M8 0c4.411 0 8 3.589 8 8 0 4.411-3.589 8-8 8-4.411 0-8-3.589-8-8 0-4.411 3.589-8 8-8zm2.8535 5.1465c-.195-.195-.512-.195-.707 0l-2.168 2.168-2.122-2.164c-.193-.2-.509-.2-.707-.008-.197.193-.2.51-.006.707l2.128 2.172-2.125 2.125c-.195.195-.195.512 0 .707.098.098.226.147.353.147.128 0 .256-.049.354-.147l2.118-2.118 2.071 2.114c.099.101.228.151.358.151.126 0 .253-.048.349-.143.198-.193.202-.51.008-.707l-2.079-2.122 2.175-2.175c.195-.195.195-.512 0-.707z" fill="#000" fill-rule="evenodd"/></svg>
